icon-themes/sifr_svg/cmd/lc_wrapideal.svg

<svg viewBox="0 0 24 24" xmlns="http://www.w3.org/2000/svg"><g fill="#555753"><path d="m1 2v2h22v-2zm0 4v2h3v-2zm5 0v7 5h12v-9-3zm14 0v2h3v-2zm-12 2h7l-5 5-2-2zm-7 3v2h3v-2zm15 0v5h-5zm4 0v2h3v-2zm-12 4 1 1h-1zm-7 1v2h3v-2zm19 0v2h3v-2zm-19 4v2h22v-2z"/><path d="m8 8v8h8v-8z" opacity=".35"/></g></svg>

<svg xmlns="http://www.w3.org/2000/svg" viewBox="0 0 24 24">
  <path
     style="fill:#555753"
     d="M 1 2 L 1 4 L 23 4 L 23 2 L 1 2 z M 1 6 L 1 8 L 4 8 L 4 6 L 1 6 z M 6 6 L 6 13 L 6 18 L 18 18 L 18 9 L 18 6 L 6 6 z M 20 6 L 20 8 L 23 8 L 23 6 L 20 6 z M 8 8 L 15 8 L 10 13 L 8 11 L 8 8 z M 1 11 L 1 13 L 4 13 L 4 11 L 1 11 z M 16 11 L 16 16 L 11 16 L 16 11 z M 20 11 L 20 13 L 23 13 L 23 11 L 20 11 z M 8 15 L 9 16 L 8 16 L 8 15 z M 1 16 L 1 18 L 4 18 L 4 16 L 1 16 z M 20 16 L 20 18 L 23 18 L 23 16 L 20 16 z M 1 20 L 1 22 L 23 22 L 23 20 L 1 20 z "
     />
  <path
     style="opacity:0.35;fill:#555753"
     d="m 8,8 v 8 h 8 V 8 Z"
     />
</svg>
